X: 4765
T: Boys Of Dildo, The
R: polka
M: 2/4
K: Dmajor
A,D FB|AF GE|FD EC|DD CA,|
A,D FB|AF GE|FD EC|A,D D2:|
|:Ad cA|Ad cA|B/c/d e2|e3d|
cA AB/c/|dc/B/ AF|GE FD|[M:3/4] EC A,D D2:|

